Newaita-dark/actions/24/layer-visible-off.svg

<svg height="24" viewBox="0 0 24 24" width="24" xmlns="http://www.w3.org/2000/svg"><g fill="#e0e0e0"><path d="m3.96875 21.523438v-18.855469c0-.273438-.222656-.496094-.496094-.496094h-.992187c-.273438 0-.496094.222656-.496094.496094v18.855469c0 .273437.222656.496093.496094.496093h.992187c.273438 0 .496094-.222656.496094-.496093zm0 0"/><path d="m2.480469 22.019531h18.855469c.273437 0 .496093-.222656.496093-.496093v-.992188c0-.277344-.222656-.5-.496093-.5h-18.855469c-.273438 0-.496094.222656-.496094.5v.992188c0 .273437.222656.496093.496094.496093zm0 0"/><path d="m6.945312 2.171875h13.894532c.546875 0 .992187.445313.992187.992187v13.890626c0 .550781-.445312.992187-.992187.992187h-13.894532c-.546874 0-.992187-.441406-.992187-.992187v-13.890626c0-.546874.445313-.992187.992187-.992187zm0 0" fill-opacity=".392157"/></g></svg>

<?xml version="1.0" encoding="UTF-8"?>
<svg xmlns="http://www.w3.org/2000/svg" xmlns:xlink="http://www.w3.org/1999/xlink" width="24px" height="24px" viewBox="0 0 24 24" version="1.1">
<g id="surface1">
<path style=" stroke:none;fill-rule:nonzero;fill:rgb(87.843138%,87.843138%,87.843138%);fill-opacity:1;" d="M 3.96875 21.523438 L 3.96875 2.667969 C 3.96875 2.394531 3.746094 2.171875 3.472656 2.171875 L 2.480469 2.171875 C 2.207031 2.171875 1.984375 2.394531 1.984375 2.667969 L 1.984375 21.523438 C 1.984375 21.796875 2.207031 22.019531 2.480469 22.019531 L 3.472656 22.019531 C 3.746094 22.019531 3.96875 21.796875 3.96875 21.523438 Z M 3.96875 21.523438 "/>
<path style=" stroke:none;fill-rule:nonzero;fill:rgb(87.843138%,87.843138%,87.843138%);fill-opacity:1;" d="M 2.480469 22.019531 L 21.335938 22.019531 C 21.609375 22.019531 21.832031 21.796875 21.832031 21.523438 L 21.832031 20.53125 C 21.832031 20.253906 21.609375 20.03125 21.335938 20.03125 L 2.480469 20.03125 C 2.207031 20.03125 1.984375 20.253906 1.984375 20.53125 L 1.984375 21.523438 C 1.984375 21.796875 2.207031 22.019531 2.480469 22.019531 Z M 2.480469 22.019531 "/>
<path style=" stroke:none;fill-rule:nonzero;fill:rgb(87.843138%,87.843138%,87.843138%);fill-opacity:0.392157;" d="M 6.945312 2.171875 L 20.839844 2.171875 C 21.386719 2.171875 21.832031 2.617188 21.832031 3.164062 L 21.832031 17.054688 C 21.832031 17.605469 21.386719 18.046875 20.839844 18.046875 L 6.945312 18.046875 C 6.398438 18.046875 5.953125 17.605469 5.953125 17.054688 L 5.953125 3.164062 C 5.953125 2.617188 6.398438 2.171875 6.945312 2.171875 Z M 6.945312 2.171875 "/>
</g>
</svg>
